!!!OTL: Die Mordeltern Es hatt ein Gastwirth einen Sohn,
!!!ARE: Europa, Mitteleuropa, Deutschland (), Brandenburg
!!!YOR: 4, S. 313
!!    1912 gedruckt
!!!SCT: Q0085l
!!!YEM: Copyright 1995, estate of Helmut Schaffrath.
**kern
*ICvox
*Ivox
*M4/4
*k[f#]
*G:
{4d
=1
4g
4g
4dd
4dd
=2
8dd
8cc
4b
4dd}
{4b
=3
4dd
4dd
8ee
8dd
8cc
8b
=4
8b
8a
4a
4a}
{4g
=5
4dd
4dd
8ee
8dd
8cc
8b
=6
2cc
4b
4r}
=7
{4a
4a
4g
4g
=8
4.gg
8aa
4gg}
{4ee
=9
4.dd
8ee
8dd
8cc
8b
8a
=10
2a
4g}
==
!!!AGN: Ballade, Habgier, Mord, Reue, Selbstmord
!! Vierte Zeile = Refrain.
!!!ONB: ESAC (Essen Associative Code) Database: BALLADE
!!!AMT: simple quadruple
!!!AIN: vox
!!!EED: Helmut Schaffrath
!!!EEV: 1.0
*-
